X:1
T:Title
%%score ( 1 2 ) { 3 | 4 }
L:1/8
Q:1/4=105
M:4/4
K:G
V:1 treble nm="Grand Piano, Soprano"
V:2 treble 
V:3 bass nm="Choir Pad, Ring, Ye Bells"
V:4 bass 
V:1
 z2 B2 B2 z2 | z2 B2 B2 z2 | [Ec]2 [DA]2 [DA]2 [DA]2 | [DF]2 [DG]2 [FA]2 [GB]2 | z2 B2 B2 z2 | %5
 z2 B2 B2 z2 | [=FB]2 [Fd]2 [Ec]2 [DA]2 | [CF]2 [CE]2 [CD]2 [B,G]2- | [B,G]2 [DG]2 D2 .[DG]2 | %9
 z2 [GB]2 G2 .[GB]2 | z2 [Gd]2 [GB]2 [Gd]2 | [Gd]2 [GB]2 [FA]2 [FA]2- | [FA]2 [DG]2 D2 [DG]2 | %13
 z2 [GB]2 G2 .[GB]2 | z2 [Gd]2 [GB]2 [Gd]2 | [Gd]2 [GA]2 [Fd]2 G2- | G6 z2 |] %17
V:2
 D2 DG FE [DB]2 | [B,D]2 DG FE [DB]2 | x8 | x8 | D2 DG FE [DB]2 | [B,D]2 DG FE [DB]2 | x8 | x8 | %8
 x8 | x8 | x8 | x8 | x8 | x8 | x8 | x8 | x8 |] %17
V:3
 D,2 G,2 G,2 G,2 | G,2 G,2 G,2 G,2 | G,2 F,G, A,B, C2 | A,2 B,2 D2 D2 | D,2 G,2 G,2 G,2 | %5
 G,2 G,2 G,2 G,2 | G,2 G,2 G,2 F,2 | A,2 G,2 F,2 G,2- | G,2 B,2 B,2 .B,D | %9
 B,G,[K:treble] D2 D2 .DD | B,[K:bass]G, B,2 D2 B,2 | D2[K:treble] D2 D2 D2- | %12
 D2 B,2[K:bass] B,2 .B,D | B,G,[K:treble] D2 D2 .DD | B,[K:bass]G, B,2 D2 B,2 | D2 E2 C2 B,2- | %16
 B,6 z2 |] %17
V:4
 z8 | z8 | C,2 D,2 D,2 D,2 | D,2 G,2 D,2 G,2 | z8 | z8 | z2 C,2 C,2 D,2 | D,2 D,2 D,2 G,,2- | %8
 G,,2 G,2 G,2 .G,D, | B,,G,, G,2 G,2 .G,D, | B,,G,, G,2 G,2 G,2 | B,,2 D,2 D,2 D,2- | %12
 D,2 G,2 G,2 .G,D, | B,,G,, G,2 G,2 .G,D, | B,,G,, G,2 G,2 G,2 | B,,2 C,2 D,2 G,,2- | G,,6 z2 |] %17

